X:3817
L:1/8
Q:3/8=120
M:6/8
K:C
 C |[K:A] ad"B" E2 |: A2 A AGA | B2 c d2 e | f2 e ecA | AGA BGE | A2 A AGA | B2 c d2 e |1 
 f2 e edc | B2 A G2 A :|2 f2 e ede |"_NB" e2 f g2 a |: BcB B2 c | d2 e cde | a2 e a2 e | 
 dcB"^*" e3 | BcB B2 c | d2 e cde | a2 e efe | d2 c B2 A :|

